Newaita-dark/.places-mint/32/folder-cloud.svg

<?xml version="1.0" encoding="UTF-8"?>
<svg xmlns="http://www.w3.org/2000/svg" xmlns:xlink="http://www.w3.org/1999/xlink" width="32px" height="32px" viewBox="0 0 32 32" version="1.1">
<defs>
<linearGradient id="linear0" gradientUnits="userSpaceOnUse" x1="254" y1="233.5" x2="254" y2="254.666672" gradientTransform="matrix(0.062506,0,0,0.062506,-0.00000381506,13.438787)">
<stop offset="0" style="stop-color:rgb(0%,0%,0%);stop-opacity:0.27451;"/>
<stop offset="1" style="stop-color:rgb(0%,0%,0%);stop-opacity:0;"/>
</linearGradient>
<radialGradient id="radial0" gradientUnits="userSpaceOnUse" cx="450.908936" cy="189.579361" fx="450.908936" fy="189.579361" r="21.166656" gradientTransform="matrix(0.00000017417,-0.0781325,-0.140638,-0.000000101539,54.115213,63.595334)">
<stop offset="0" style="stop-color:rgb(0%,0%,0%);stop-opacity:0.313726;"/>
<stop offset="0.222222" style="stop-color:rgb(0%,0%,0%);stop-opacity:0.27451;"/>
<stop offset="1" style="stop-color:rgb(0%,0%,0%);stop-opacity:0;"/>
</radialGradient>
<radialGradient id="radial1" gradientUnits="userSpaceOnUse" cx="450.908936" cy="189.579361" fx="450.908936" fy="189.579361" r="21.166656" gradientTransform="matrix(-0.00000017417,0.0781325,0.140638,0.000000101539,-22.362178,-7.527477)">
<stop offset="0" style="stop-color:rgb(0%,0%,0%);stop-opacity:0.313726;"/>
<stop offset="0.222222" style="stop-color:rgb(0%,0%,0%);stop-opacity:0.27451;"/>
<stop offset="1" style="stop-color:rgb(0%,0%,0%);stop-opacity:0;"/>
</radialGradient>
<radialGradient id="radial2" gradientUnits="userSpaceOnUse" cx="450.908936" cy="189.579361" fx="450.908936" fy="189.579361" r="21.166656" gradientTransform="matrix(-0.00000017417,-0.0781325,0.140638,-0.000000101539,-22.362178,63.595334)">
<stop offset="0" style="stop-color:rgb(0%,0%,0%);stop-opacity:0.313726;"/>
<stop offset="0.222222" style="stop-color:rgb(0%,0%,0%);stop-opacity:0.27451;"/>
<stop offset="1" style="stop-color:rgb(0%,0%,0%);stop-opacity:0;"/>
</radialGradient>
<radialGradient id="radial3" gradientUnits="userSpaceOnUse" cx="450.908936" cy="189.579361" fx="450.908936" fy="189.579361" r="21.166656" gradientTransform="matrix(0.00000017417,0.0781325,-0.140638,0.000000101539,54.115211,-7.527477)">
<stop offset="0" style="stop-color:rgb(0%,0%,0%);stop-opacity:0.313726;"/>
<stop offset="0.222222" style="stop-color:rgb(0%,0%,0%);stop-opacity:0.27451;"/>
<stop offset="1" style="stop-color:rgb(0%,0%,0%);stop-opacity:0;"/>
</radialGradient>
<linearGradient id="linear1" gradientUnits="userSpaceOnUse" x1="254" y1="-147.5" x2="254" y2="-31.083334" gradientTransform="matrix(0.062506,0,0,0.062506,0.00000124975,13.438781)">
<stop offset="0" style="stop-color:rgb(64.313728%,64.313728%,64.313728%);stop-opacity:0;"/>
<stop offset="1" style="stop-color:rgb(100%,100%,100%);stop-opacity:0.196078;"/>
</linearGradient>
<linearGradient id="linear2" gradientUnits="userSpaceOnUse" x1="254" y1="233.5" x2="254" y2="-105.166656" gradientTransform="matrix(0.062506,0,0,0.062506,-0.00000181239,13.438783)">
<stop offset="0" style="stop-color:rgb(34.509805%,34.509805%,34.509805%);stop-opacity:0;"/>
<stop offset="1" style="stop-color:rgb(98.039216%,98.039216%,98.039216%);stop-opacity:0.196078;"/>
</linearGradient>
</defs>
<g id="surface1">
<path style=" stroke:none;fill-rule:nonzero;fill:url(#linear0);" d="M 3.96875 28.035156 L 27.785156 28.035156 L 27.785156 29.355469 L 3.96875 29.355469 Z M 3.96875 28.035156 "/>
<path style=" stroke:none;fill-rule:nonzero;fill:url(#radial0);" d="M 27.785156 28.035156 L 30.429688 28.035156 L 30.429688 26.710938 L 27.785156 26.710938 Z M 27.785156 28.035156 "/>
<path style=" stroke:none;fill-rule:nonzero;fill:url(#radial1);" d="M 3.96875 28.035156 L 1.324219 28.035156 L 1.324219 29.355469 L 3.96875 29.355469 Z M 3.96875 28.035156 "/>
<path style=" stroke:none;fill-rule:nonzero;fill:url(#radial2);" d="M 3.96875 28.035156 L 1.324219 28.035156 L 1.324219 26.710938 L 3.96875 26.710938 Z M 3.96875 28.035156 "/>
<path style=" stroke:none;fill-rule:nonzero;fill:url(#radial3);" d="M 27.785156 28.035156 L 30.429688 28.035156 L 30.429688 29.355469 L 27.785156 29.355469 Z M 27.785156 28.035156 "/>
<path style=" stroke:none;fill-rule:nonzero;fill:rgb(61.176473%,80.000001%,39.607844%);fill-opacity:1;" d="M 7.277344 4.21875 L 28.777344 4.21875 C 29.507812 4.21875 30.097656 4.8125 30.097656 5.542969 L 30.097656 10.503906 C 30.097656 11.234375 29.507812 11.828125 28.777344 11.828125 L 7.277344 11.828125 C 6.546875 11.828125 5.953125 11.234375 5.953125 10.503906 L 5.953125 5.542969 C 5.953125 4.8125 6.546875 4.21875 7.277344 4.21875 Z M 7.277344 4.21875 "/>
<path style=" stroke:none;fill-rule:nonzero;fill:url(#linear1);" d="M 7.277344 4.21875 L 28.777344 4.21875 C 29.507812 4.21875 30.097656 4.8125 30.097656 5.542969 L 30.097656 10.503906 C 30.097656 11.234375 29.507812 11.828125 28.777344 11.828125 L 7.277344 11.828125 C 6.546875 11.828125 5.953125 11.234375 5.953125 10.503906 L 5.953125 5.542969 C 5.953125 4.8125 6.546875 4.21875 7.277344 4.21875 Z M 7.277344 4.21875 "/>
<path style=" stroke:none;fill-rule:nonzero;fill:rgb(90.196079%,90.196079%,90.196079%);fill-opacity:0.392157;" d="M 7.277344 4.308594 C 6.542969 4.308594 5.953125 4.898438 5.953125 5.628906 L 5.953125 5.796875 C 5.953125 5.0625 6.542969 4.472656 7.277344 4.472656 L 28.777344 4.472656 C 29.507812 4.472656 30.097656 5.0625 30.097656 5.796875 L 30.097656 5.628906 C 30.097656 4.898438 29.507812 4.308594 28.777344 4.308594 Z M 7.277344 4.308594 "/>
<path style=" stroke:none;fill-rule:nonzero;fill:rgb(12.941177%,12.941177%,12.941177%);fill-opacity:1;" d="M 7.277344 4.125 C 6.492188 4.125 5.859375 4.757812 5.859375 5.542969 L 5.859375 10.503906 C 5.859375 11.285156 6.492188 11.921875 7.277344 11.921875 L 28.777344 11.921875 C 29.558594 11.921875 30.191406 11.285156 30.191406 10.503906 L 30.191406 5.542969 C 30.191406 4.757812 29.558594 4.125 28.777344 4.125 Z M 7.277344 4.3125 L 28.777344 4.3125 C 29.457031 4.3125 30.003906 4.859375 30.003906 5.542969 L 30.003906 10.503906 C 30.003906 11.1875 29.457031 11.734375 28.777344 11.734375 L 7.277344 11.734375 C 6.59375 11.734375 6.046875 11.1875 6.046875 10.503906 L 6.046875 5.542969 C 6.046875 4.859375 6.59375 4.3125 7.277344 4.3125 Z M 7.277344 4.3125 "/>
<path style=" stroke:none;fill-rule:nonzero;fill:rgb(68.235296%,83.529413%,50.588238%);fill-opacity:1;" d="M 2.644531 6.863281 C 1.914062 6.863281 1.324219 7.457031 1.324219 8.1875 L 1.324219 26.710938 C 1.324219 27.445312 1.914062 28.035156 2.644531 28.035156 L 29.105469 28.035156 C 29.839844 28.035156 30.429688 27.445312 30.429688 26.710938 L 30.429688 10.171875 L 12.570312 10.171875 C 11.835938 10.171875 11.246094 9.582031 11.246094 8.851562 L 11.246094 6.863281 Z M 2.644531 6.863281 "/>
<path style=" stroke:none;fill-rule:nonzero;fill:url(#linear2);" d="M 2.644531 6.863281 C 1.914062 6.863281 1.324219 7.457031 1.324219 8.1875 L 1.324219 26.710938 C 1.324219 27.445312 1.914062 28.035156 2.644531 28.035156 L 29.105469 28.035156 C 29.839844 28.035156 30.429688 27.445312 30.429688 26.710938 L 30.429688 10.171875 L 12.570312 10.171875 C 11.835938 10.171875 11.246094 9.582031 11.246094 8.851562 L 11.246094 6.863281 Z M 2.644531 6.863281 "/>
<path style=" stroke:none;fill-rule:nonzero;fill:rgb(0%,0%,0%);fill-opacity:0.196078;" d="M 2.644531 28.035156 C 1.914062 28.035156 1.324219 27.445312 1.324219 26.710938 L 1.324219 26.546875 C 1.324219 27.277344 1.914062 27.867188 2.644531 27.867188 L 29.105469 27.867188 C 29.839844 27.867188 30.429688 27.277344 30.429688 26.546875 L 30.429688 26.710938 C 30.429688 27.445312 29.839844 28.035156 29.105469 28.035156 Z M 2.644531 28.035156 "/>
<path style=" stroke:none;fill-rule:nonzero;fill:rgb(90.196079%,90.196079%,90.196079%);fill-opacity:0.392157;" d="M 2.644531 6.949219 C 1.914062 6.949219 1.324219 7.539062 1.324219 8.269531 L 1.324219 8.4375 C 1.324219 7.703125 1.914062 7.113281 2.644531 7.113281 L 11.246094 7.113281 L 11.246094 6.949219 Z M 2.644531 6.949219 "/>
<path style=" stroke:none;fill-rule:nonzero;fill:rgb(90.196079%,90.196079%,90.196079%);fill-opacity:0.392157;" d="M 12.484375 10.339844 C 11.753906 10.339844 11.164062 9.75 11.164062 9.015625 L 11.164062 8.851562 C 11.164062 9.582031 11.753906 10.175781 12.484375 10.171875 L 30.429688 10.171875 L 30.429688 10.339844 Z M 12.484375 10.339844 "/>
<path style=" stroke:none;fill-rule:nonzero;fill:rgb(12.941177%,12.941177%,12.941177%);fill-opacity:1;" d="M 2.644531 6.769531 C 1.863281 6.769531 1.230469 7.40625 1.230469 8.1875 L 1.230469 26.710938 C 1.230469 27.496094 1.863281 28.128906 2.644531 28.128906 L 29.105469 28.128906 C 29.890625 28.128906 30.523438 27.496094 30.523438 26.710938 L 30.523438 9.984375 L 12.570312 9.984375 C 11.886719 9.984375 11.339844 9.4375 11.339844 8.757812 L 11.339844 6.769531 Z M 2.644531 6.960938 L 11.152344 6.960938 L 11.152344 8.757812 C 11.152344 9.539062 11.785156 10.171875 12.570312 10.171875 L 30.335938 10.171875 L 30.335938 26.710938 C 30.335938 27.394531 29.789062 27.941406 29.105469 27.941406 L 2.644531 27.941406 C 1.964844 27.941406 1.417969 27.394531 1.417969 26.710938 L 1.417969 8.1875 C 1.417969 7.503906 1.964844 6.960938 2.644531 6.960938 Z M 2.644531 6.960938 "/>
<path style=" stroke:none;fill-rule:nonzero;fill:rgb(54.509807%,76.47059%,29.019609%);fill-opacity:1;" d="M 16.539062 13.824219 C 14.738281 13.824219 13.28125 15.25 13.230469 17.035156 C 13.101562 17.007812 12.96875 16.988281 12.828125 16.988281 C 11.875 16.988281 11.105469 17.757812 11.105469 18.714844 C 11.105469 19.082031 11.21875 19.421875 11.414062 19.703125 C 10.847656 19.878906 10.441406 20.40625 10.441406 21.03125 C 10.441406 21.800781 11.0625 22.425781 11.835938 22.425781 C 11.859375 22.425781 11.882812 22.421875 11.90625 22.421875 L 11.90625 22.425781 L 18.851562 22.425781 L 18.851562 22.410156 C 20.15625 22.28125 21.167969 21.1875 21.167969 19.847656 C 21.167969 18.863281 20.621094 18.011719 19.816406 17.578125 C 19.835938 17.433594 19.84375 17.285156 19.84375 17.132812 C 19.84375 15.300781 18.371094 13.824219 16.539062 13.824219 Z M 16.539062 13.824219 "/>
<path style=" stroke:none;fill-rule:nonzero;fill:rgb(0%,0%,0%);fill-opacity:0.235294;" d="M 16.539062 13.734375 C 14.738281 13.734375 13.28125 15.160156 13.230469 16.949219 C 13.101562 16.917969 12.96875 16.898438 12.828125 16.898438 C 11.875 16.898438 11.105469 17.667969 11.105469 18.625 C 11.105469 18.679688 11.105469 18.730469 11.113281 18.78125 C 11.191406 17.902344 11.925781 17.21875 12.828125 17.21875 C 12.96875 17.21875 13.101562 17.234375 13.230469 17.265625 C 13.28125 15.476562 14.738281 14.050781 16.539062 14.050781 C 18.316406 14.050781 19.757812 15.441406 19.84375 17.199219 C 19.84375 17.148438 19.84375 17.09375 19.84375 17.042969 C 19.84375 15.210938 18.371094 13.734375 16.539062 13.734375 Z M 19.84375 17.503906 C 19.839844 17.605469 19.828125 17.707031 19.816406 17.808594 C 20.578125 18.21875 21.109375 19.003906 21.164062 19.917969 C 21.167969 19.867188 21.167969 19.8125 21.167969 19.757812 C 21.167969 18.785156 20.632812 17.941406 19.84375 17.503906 Z M 11.261719 19.667969 C 10.777344 19.886719 10.441406 20.371094 10.441406 20.941406 C 10.441406 20.996094 10.445312 21.046875 10.453125 21.101562 C 10.515625 20.546875 10.898438 20.09375 11.414062 19.929688 C 11.355469 19.847656 11.304688 19.761719 11.261719 19.667969 Z M 11.261719 19.667969 "/>
<path style=" stroke:none;fill-rule:nonzero;fill:rgb(100%,100%,100%);fill-opacity:0.392157;" d="M 19.84375 17.226562 C 19.835938 17.324219 19.828125 17.425781 19.816406 17.519531 C 19.824219 17.527344 19.832031 17.53125 19.84375 17.535156 C 19.84375 17.484375 19.84375 17.429688 19.84375 17.378906 C 19.84375 17.328125 19.84375 17.277344 19.84375 17.226562 Z M 11.109375 18.808594 C 11.105469 18.859375 11.105469 18.910156 11.105469 18.960938 C 11.105469 19.226562 11.164062 19.476562 11.269531 19.699219 C 11.316406 19.675781 11.363281 19.660156 11.414062 19.644531 C 11.246094 19.402344 11.136719 19.117188 11.109375 18.808594 Z M 21.164062 19.945312 C 21.089844 21.210938 20.105469 22.226562 18.851562 22.351562 L 18.851562 22.367188 L 11.90625 22.367188 L 11.90625 22.363281 C 11.882812 22.363281 11.859375 22.367188 11.835938 22.367188 C 11.117188 22.367188 10.527344 21.824219 10.449219 21.125 C 10.445312 21.175781 10.441406 21.226562 10.441406 21.277344 C 10.441406 22.050781 11.0625 22.671875 11.835938 22.671875 C 11.859375 22.671875 11.882812 22.671875 11.90625 22.667969 L 11.90625 22.671875 L 18.851562 22.671875 L 18.851562 22.65625 C 20.15625 22.527344 21.167969 21.433594 21.167969 20.09375 C 21.167969 20.042969 21.167969 19.996094 21.164062 19.945312 Z M 21.164062 19.945312 "/>
<path style="fill:none;stroke-width:3;stroke-linecap:round;stroke-linejoin:round;stroke:rgb(12.941177%,12.941177%,12.941177%);stroke-opacity:1;stroke-miterlimit:4;" d="M 264.599732 6.16638 C 235.789983 6.16638 212.479709 28.976701 211.667287 57.536474 C 209.604984 57.099016 207.480187 56.786546 205.230401 56.786546 C 189.981858 56.786546 177.670533 69.09787 177.670533 84.408908 C 177.670533 90.283347 179.48286 95.720328 182.607562 100.219898 C 173.545927 103.032129 167.046548 111.468824 167.046548 121.467869 C 167.046548 133.779193 176.983099 143.778238 189.356917 143.778238 C 189.731882 143.778238 190.106846 143.715744 190.48181 143.715744 L 190.48181 143.778238 L 301.596199 143.778238 L 301.596199 143.528262 C 322.469206 141.465959 338.65516 123.96763 338.65516 102.532177 C 338.65516 86.783681 329.905996 73.159982 317.032225 66.223145 C 317.344695 63.910865 317.469683 61.536092 317.469683 59.098825 C 317.469683 29.789124 293.909433 6.16638 264.599732 6.16638 Z M 264.599732 6.16638 " transform="matrix(0.062506,0,0,0.062506,0,13.438783)"/>
</g>
</svg>

<svg xmlns="http://www.w3.org/2000/svg" width="32" height="32"><defs><linearGradient id="a" gradientUnits="userSpaceOnUse" x1="254" y1="233.5" x2="254" y2="254.667" gradientTransform="matrix(.0625 0 0 .0625 0 13.439)"><stop offset="0" stop-opacity=".275"/><stop offset="1" stop-opacity="0"/></linearGradient><radialGradient id="b" gradientUnits="userSpaceOnUse" cx="450.909" cy="189.579" fx="450.909" fy="189.579" r="21.167" gradientTransform="matrix(0 -.07813 -.14064 0 54.115 63.595)"><stop offset="0" stop-opacity=".314"/><stop offset=".222" stop-opacity=".275"/><stop offset="1" stop-opacity="0"/></radialGradient><radialGradient id="c" gradientUnits="userSpaceOnUse" cx="450.909" cy="189.579" fx="450.909" fy="189.579" r="21.167" gradientTransform="matrix(0 .07813 .14064 0 -22.362 -7.527)"><stop offset="0" stop-opacity=".314"/><stop offset=".222" stop-opacity=".275"/><stop offset="1" stop-opacity="0"/></radialGradient><radialGradient id="d" gradientUnits="userSpaceOnUse" cx="450.909" cy="189.579" fx="450.909" fy="189.579" r="21.167" gradientTransform="matrix(0 -.07813 .14064 0 -22.362 63.595)"><stop offset="0" stop-opacity=".314"/><stop offset=".222" stop-opacity=".275"/><stop offset="1" stop-opacity="0"/></radialGradient><radialGradient id="e" gradientUnits="userSpaceOnUse" cx="450.909" cy="189.579" fx="450.909" fy="189.579" r="21.167" gradientTransform="matrix(0 .07813 -.14064 0 54.115 -7.527)"><stop offset="0" stop-opacity=".314"/><stop offset=".222" stop-opacity=".275"/><stop offset="1" stop-opacity="0"/></radialGradient><linearGradient id="f" gradientUnits="userSpaceOnUse" x1="254" y1="-147.5" x2="254" y2="-31.083" gradientTransform="matrix(.0625 0 0 .0625 0 13.439)"><stop offset="0" stop-color="#a4a4a4" stop-opacity="0"/><stop offset="1" stop-color="#fff" stop-opacity=".196"/></linearGradient><linearGradient id="g" gradientUnits="userSpaceOnUse" x1="254" y1="233.5" x2="254" y2="-105.167" gradientTransform="matrix(.0625 0 0 .0625 0 13.439)"><stop offset="0" stop-color="#585858" stop-opacity="0"/><stop offset="1" stop-color="#fafafa" stop-opacity=".196"/></linearGradient><linearGradient id="h" gradientUnits="userSpaceOnUse" x1="254" y1="-147.5" x2="254" y2="233.5" gradientTransform="matrix(.0625 0 0 .0625 0 13.439)"><stop offset="0" stop-color="#a4a4a4" stop-opacity="0"/><stop offset="1" stop-color="#fff" stop-opacity=".196"/></linearGradient></defs><path d="M3.969 28.035h23.816v1.32H3.97zm0 0" fill="url(#a)"/><path d="M27.785 28.035h2.645v-1.324h-2.645zm0 0" fill="url(#b)"/><path d="M3.969 28.035H1.324v1.32H3.97zm0 0" fill="url(#c)"/><path d="M3.969 28.035H1.324v-1.324H3.97zm0 0" fill="url(#d)"/><path d="M27.785 28.035h2.645v1.32h-2.645zm0 0" fill="url(#e)"/><path d="M7.277 4.219h21.5c.73 0 1.32.593 1.32 1.324v4.96c0 .731-.59 1.325-1.32 1.325h-21.5c-.73 0-1.324-.594-1.324-1.324V5.543c0-.73.594-1.324 1.324-1.324zm0 0" fill="#7cb342"/><path d="M7.277 4.219h21.5c.73 0 1.32.593 1.32 1.324v4.96c0 .731-.59 1.325-1.32 1.325h-21.5c-.73 0-1.324-.594-1.324-1.324V5.543c0-.73.594-1.324 1.324-1.324zm0 0" fill="url(#f)"/><path d="M7.277 4.219a1.32 1.32 0 0 0-1.324 1.324v.164c0-.734.59-1.324 1.324-1.324h21.5c.73 0 1.32.59 1.32 1.324v-.164a1.32 1.32 0 0 0-1.32-1.324zm0 0" fill="#e6e6e6" fill-opacity=".588"/><path d="M7.277 4.125c-.785 0-1.418.633-1.418 1.418v4.96c0 .782.633 1.419 1.418 1.419h21.5c.782 0 1.414-.637 1.414-1.418V5.543c0-.785-.632-1.418-1.414-1.418zm0 .188h21.5c.68 0 1.227.546 1.227 1.23v4.96c0 .684-.547 1.231-1.227 1.231h-21.5c-.683 0-1.23-.546-1.23-1.23V5.543c0-.684.547-1.23 1.23-1.23zm0 0" fill="#212121"/><path d="M2.645 6.863c-.73 0-1.32.594-1.32 1.324v18.524c0 .734.59 1.324 1.32 1.324h26.46a1.32 1.32 0 0 0 1.325-1.324V10.17H12.57a1.32 1.32 0 0 1-1.324-1.32V6.864zm0 0" fill="#9ccc65"/><path d="M2.645 6.863c-.73 0-1.32.594-1.32 1.324v18.524c0 .734.59 1.324 1.32 1.324h26.46a1.32 1.32 0 0 0 1.325-1.324V10.17H12.57a1.32 1.32 0 0 1-1.324-1.32V6.864zm0 0" fill="url(#g)"/><path d="M2.645 28.035c-.73 0-1.32-.59-1.32-1.324v-.164c0 .73.59 1.32 1.32 1.32h26.46a1.32 1.32 0 0 0 1.325-1.32v.164a1.32 1.32 0 0 1-1.325 1.324zm0 0" fill-opacity=".196"/><path d="M2.645 6.863c-.73 0-1.32.594-1.32 1.324v.168c0-.734.59-1.324 1.32-1.324h8.601v-.168zm0 0M12.484 10.254c-.73 0-1.32-.59-1.32-1.32v-.168c0 .734.59 1.324 1.32 1.324H30.43v.164zm0 0" fill="#e6e6e6" fill-opacity=".937"/><path d="M2.645 6.77c-.782 0-1.415.636-1.415 1.418V26.71c0 .785.633 1.418 1.415 1.418h26.46c.786 0 1.418-.633 1.418-1.418V9.984H12.57c-.683 0-1.23-.546-1.23-1.226V6.77zm0 .19h8.507v1.798c0 .781.633 1.414 1.418 1.414h17.766V26.71c0 .684-.547 1.23-1.23 1.23H2.644c-.68 0-1.227-.546-1.227-1.23V8.188c0-.684.547-1.227 1.227-1.227zm0 0" fill="#212121"/><path d="M17.2 13.059c-1.032 0-1.919.625-2.329 1.523-.254-.129-.539-.2-.844-.2h-.117c-.84 0-1.555.552-1.816 1.325H11.945c-.71 0-1.285.59-1.285 1.324 0 .73.574 1.32 1.285 1.32h4.875a2.608 2.608 0 0 0-.625.864 1.864 1.864 0 0 0-.843-.2h-.118c-.843 0-1.554.551-1.82 1.325-.02-.004-.043-.004-.066-.004h-.078c-.711 0-1.286.59-1.286 1.324 0 .735.575 1.324 1.286 1.324h5.406c1.426 0 2.57-1.18 2.57-2.648 0-1.34-.96-2.445-2.219-2.621a2.66 2.66 0 0 0 .895-2.008c0-1.465-1.145-2.648-2.567-2.648zm0 0" fill="#7cb342"/><path d="M17.2 13.059c-1.032 0-1.919.625-2.329 1.523-.254-.129-.539-.2-.844-.2h-.117c-.84 0-1.555.552-1.816 1.325H11.945c-.71 0-1.285.59-1.285 1.324 0 .73.574 1.32 1.285 1.32h4.875a2.608 2.608 0 0 0-.625.864 1.864 1.864 0 0 0-.843-.2h-.118c-.843 0-1.554.551-1.82 1.325-.02-.004-.043-.004-.066-.004h-.078c-.711 0-1.286.59-1.286 1.324 0 .735.575 1.324 1.286 1.324h5.406c1.426 0 2.57-1.18 2.57-2.648 0-1.34-.96-2.445-2.219-2.621a2.66 2.66 0 0 0 .895-2.008c0-1.465-1.145-2.648-2.567-2.648zm0 0" fill="url(#h)"/><path d="M17.2 12.965c-1.04 0-1.934.613-2.372 1.504a1.969 1.969 0 0 0-.8-.18h-.118c-.86 0-1.586.55-1.879 1.324h-.086c-.761 0-1.379.633-1.379 1.418 0 .782.618 1.414 1.38 1.414h4.663c-.18.196-.336.41-.457.653a1.966 1.966 0 0 0-.8-.176h-.118c-.859 0-1.586.547-1.879 1.32h-.085c-.766 0-1.38.637-1.38 1.418 0 .781.614 1.418 1.38 1.418h5.406c1.476 0 2.664-1.226 2.664-2.742 0-1.328-.914-2.422-2.137-2.676a2.753 2.753 0 0 0 .813-1.953c0-1.516-1.188-2.742-2.66-2.742zm0 .187h.155c1.372 0 2.473 1.137 2.473 2.555 0 .777-.332 1.473-.86 1.938l-.155.136.203.028c1.207.168 2.136 1.23 2.136 2.527 0 1.418-1.105 2.555-2.476 2.555H13.27c-.66 0-1.192-.547-1.192-1.23 0-.684.531-1.231 1.192-1.231h.078c.02 0 .043 0 .062.004l.07.003.024-.066c.25-.738.93-1.262 1.73-1.262h.118c.285 0 .558.067.8.188l.086.043.043-.086a2.57 2.57 0 0 1 .602-.832l.18-.164h-5.118c-.66 0-1.191-.543-1.191-1.227 0-.687.531-1.23 1.191-1.23H12.086l.074.004.02-.067c.254-.738.93-1.261 1.73-1.261h.117c.29 0 .559.07.801.191l.09.043.039-.09c.395-.867 1.246-1.469 2.242-1.469zm0 0" fill="#212121"/></svg>
